svgs/sharp-light/user-unlock.svg

<svg xmlns="http://www.w3.org/2000/svg" viewBox="0 0 640 512"><!--! Font Awesome Pro 6.4.2 by @fontawesome - https://fontawesome.com License - https://fontawesome.com/license (Commercial License) Copyright 2023 Fonticons, Inc. --><path d="M224 224a96 96 0 1 0 0-192 96 96 0 1 0 0 192zM224 0a128 128 0 1 1 0 256A128 128 0 1 1 224 0zM87.6 336L43.3 480H384l0 32H33.5 0l9.8-32L64 304H384l0 108.8L360.4 336H87.6zM480 272v48h32 64 32 32v32V480v32H608 448 416V480 352 320h32V272c0-44.2 35.8-80 80-80s80 35.8 80 80H576c0-26.5-21.5-48-48-48s-48 21.5-48 48zM448 480H608V352H448V480z"/></svg>

<svg xmlns="http://www.w3.org/2000/svg" viewBox="0 0 640 512"><!--! Font Awesome Pro 6.6.0 by @fontawesome - https://fontawesome.com License - https://fontawesome.com/license (Commercial License) Copyright 2024 Fonticons, Inc. --><path d="M224 224a96 96 0 1 0 0-192 96 96 0 1 0 0 192zM224 0a128 128 0 1 1 0 256A128 128 0 1 1 224 0zM87.6 336L43.3 480 384 480l0 32L33.5 512 0 512l9.8-32L64 304l320 0 0 108.8L360.4 336 87.6 336zM480 272l0 48 32 0 64 0 32 0 32 0 0 32 0 128 0 32-32 0-160 0-32 0 0-32 0-128 0-32 32 0 0-48c0-44.2 35.8-80 80-80s80 35.8 80 80l-32 0c0-26.5-21.5-48-48-48s-48 21.5-48 48zM448 480l160 0 0-128-160 0 0 128z"/></svg>
